Flat-Remix-Dark/apps/scalable/billard-gl.svg

<svg width="384pt" height="384pt" version="1.1" viewBox="0 0 384 384" xmlns="http://www.w3.org/2000/svg" xmlns:xlink="http://www.w3.org/1999/xlink">
 <defs>
  <linearGradient id="linearGradient852" x1="307.19595" x2="20.709846" y1="122.82591" y2="416.21533" gradientUnits="userSpaceOnUse">
   <stop style="stop-color:#d40000" offset="0"/>
   <stop style="stop-color:#f54545" offset="1"/>
  </linearGradient>
 </defs>
 <path d="m369.07992 190.60156c0 98.3125-79.69531 178.01172-178.01172 178.01172-98.308591 0-178.01172-79.69531-178.01172-178.01172 0-98.308591 79.699219-178.01172 178.01172-178.01172 98.3125 0 178.01172 79.699218 178.01172 178.01172" style="fill-rule:evenodd;fill:url(#linearGradient852)"/>
 <path d="m306.91797 190c0 62.84375-50.945313 113.78906-113.78906 113.78906s-113.79297-50.945312-113.79297-113.78906 50.949218-113.78906 113.79297-113.78906 113.78906 50.945312 113.78906 113.78906z" style="fill:rgb(100%,100%,100%)"/>
 <path d="m306.91797 190c0 62.84375-50.945313 113.78906-113.78906 113.78906s-113.79297-50.945312-113.79297-113.78906 50.949218-113.78906 113.79297-113.78906 113.78906 50.945312 113.78906 113.78906z" style="fill:rgb(0%,0%,0%)"/>
 <path d="m244.17969 190c0 29.023438-23.527344 52.550781-52.550782 52.550781-29.023437 0-52.554687-23.527343-52.554687-52.550781s23.53125-52.550781 52.554687-52.550781c29.023438 0 52.550782 23.527343 52.550782 52.550781z" style="fill:rgb(100%,100%,100%)"/>
 <path d="m211.37109 202.82031c0 2.464844-0.398438 4.738282-1.191406 6.820313-0.765626 2.054687-1.960938 3.835937-3.574219 5.339844-1.589844 1.507812-3.628907 2.6875-6.125 3.535156-2.492188 0.847656-5.4375 1.273437-8.832031 1.273437-3.398438 0-6.339844-0.425781-8.835938-1.273437-2.464844-0.847656-4.519531-2.011719-6.160156-3.492187-1.617188-1.507813-2.824219-3.289063-3.617188-5.34375-0.765625-2.082032-1.152344-4.339844-1.152344-6.777344 0-2.109375 0.316407-3.988282 0.945313-5.628906 0.660156-1.644532 1.523437-3.054688 2.589844-4.234376 1.097656-1.203124 2.328125-2.164062 3.699219-2.875 1.394531-0.738281 2.835937-1.234374 4.3125-1.480468v-0.164063c-1.617188-0.382812-3.066407-1-4.355469-1.847656-1.257813-0.847656-2.328125-1.863281-3.203125-3.039063-0.851563-1.207031-1.507813-2.535156-1.972656-3.988281-0.4375-1.449219-0.65625-2.984375-0.65625-4.601562 0-2.027344 0.382812-3.929688 1.148437-5.710938 0.796875-1.808593 1.960937-3.382812 3.492187-4.726562 1.535157-1.367188 3.4375-2.4375 5.710938-3.203125 2.273438-0.792969 4.90625-1.191406 7.890625-1.191406 3.148437 0 5.875 0.398437 8.175781 1.191406 2.328125 0.792968 4.246094 1.875 5.753906 3.246094 1.53125 1.34375 2.667969 2.917968 3.410157 4.726562 0.738281 1.804688 1.109375 3.722656 1.109375 5.75 0 1.589844-0.234375 3.109375-0.699219 4.5625-0.4375 1.449219-1.09375 2.78125-1.972656 3.984375-0.847657 1.179687-1.917969 2.191406-3.203125 3.042969-1.261719 0.820312-2.726563 1.394531-4.398438 1.722656v0.164062c1.671875 0.273438 3.21875 0.78125 4.644532 1.519532 1.421874 0.714844 2.65625 1.671875 3.695312 2.878906 1.042969 1.175781 1.863281 2.585938 2.46875 4.230469 0.601562 1.644531 0.902344 3.507812 0.902344 5.589843zm-9.121094-27.285156c0-1.449218-0.191406-2.777344-0.578125-3.984375-0.355469-1.207031-0.957031-2.230469-1.804687-3.082031-0.851563-0.875-1.960938-1.546875-3.328126-2.011719-1.371093-0.496093-3.054687-0.742187-5.054687-0.742187-1.945313 0-3.589844 0.246094-4.929687 0.742187-1.34375 0.464844-2.453126 1.136719-3.328126 2.011719-0.851562 0.851562-1.46875 1.875-1.851562 3.082031s-0.574219 2.535157-0.574219 3.984375c0 1.152344 0.148438 2.328125 0.453125 3.535156 0.300782 1.207032 0.847656 2.300782 1.640625 3.285157 0.796875 0.988281 1.890625 1.796875 3.289063 2.425781 1.394531 0.628906 3.191406 0.945312 5.382812 0.945312 2.328125 0 4.191406-0.316406 5.585938-0.945312 1.425781-0.628906 2.507812-1.4375 3.246094-2.425781 0.769531-0.984375 1.261718-2.078125 1.480468-3.285157 0.246094-1.207031 0.367188-2.382812 0.367188-3.535156zm1.4375 26.585938c0-1.398438-0.191406-2.738282-0.574219-4.027344-0.386719-1.3125-1.042969-2.464844-1.972656-3.449219-0.933594-1.015625-2.191406-1.824219-3.78125-2.425781-1.5625-0.628906-3.519531-0.945312-5.875-0.945312-2.164063 0-4.015625 0.316406-5.546875 0.945312-1.507812 0.601562-2.738281 1.410156-3.699219 2.425781-0.929687 1.011719-1.617187 2.191407-2.054687 3.53125-0.4375 1.316407-0.65625 2.683594-0.65625 4.109375 0 1.78125 0.21875 3.410156 0.65625 4.890625 0.4375 1.449219 1.136718 2.710938 2.097656 3.777344 0.957031 1.042969 2.21875 1.851563 3.777344 2.425781 1.5625 0.574219 3.453125 0.863282 5.671875 0.863282 2.246093 0 4.136719-0.289063 5.667969-0.863282 1.535156-0.574218 2.769531-1.382812 3.699218-2.425781 0.933594-1.066406 1.589844-2.339844 1.972656-3.820313 0.410157-1.503906 0.617188-3.175781 0.617188-5.011718z" style="fill:rgb(0%,0%,0%)"/>
 <path transform="scale(.75)" d="m254.75781 16.787109c-131.08333 0-237.34961 106.26954-237.34961 237.34766 0 1.67151 0.030065 3.33672 0.064453 5 2.663203-128.76834 107.87381-232.34766 237.28515-232.34766 129.41135 0 234.62196 103.57443 237.28516 232.34766 0.03438-1.66322 0.06445-3.32855 0.06445-5 0-131.08332-106.26627-237.34766-237.34961-237.34766z" style="fill-rule:evenodd;fill:#ffffff;opacity:.3"/>
 <path transform="scale(.75)" d="m17.472656 249.13477c-0.034408 1.66367-0.064453 3.32808-0.064453 5 0 131.08854 106.2715 237.34961 237.34961 237.34961 131.08855 0 237.34961-106.26628 237.34961-237.34961 0-1.67199-0.03004-3.33626-0.06445-5-2.66224 128.77397-107.86813 232.34961-237.28516 232.34961-129.40673 0-234.62266-103.57075-237.28515-232.34961z" style="fill-rule:evenodd;opacity:.3"/>
</svg>

<svg xmlns="http://www.w3.org/2000/svg" width="384pt" height="384pt" version="1.1" viewBox="0 0 384 384">
 <g>
  <path style="fill-rule:evenodd;fill:rgb(83.137255%,0%,0%)" d="M 370.230469 190.601562 C 370.230469 288.914062 290.535156 368.613281 192.21875 368.613281 C 93.910156 368.613281 14.207031 288.917969 14.207031 190.601562 C 14.207031 92.292969 93.90625 12.589844 192.21875 12.589844 C 290.53125 12.589844 370.230469 92.289062 370.230469 190.601562"/>
  <path style="fill:rgb(100%,100%,100%)" d="M 306.917969 190 C 306.917969 252.84375 255.972656 303.789062 193.128906 303.789062 C 130.285156 303.789062 79.335938 252.84375 79.335938 190 C 79.335938 127.15625 130.285156 76.210938 193.128906 76.210938 C 255.972656 76.210938 306.917969 127.15625 306.917969 190 Z M 306.917969 190"/>
  <path style="fill:rgb(0%,0%,0%)" d="M 306.917969 190 C 306.917969 252.84375 255.972656 303.789062 193.128906 303.789062 C 130.285156 303.789062 79.335938 252.84375 79.335938 190 C 79.335938 127.15625 130.285156 76.210938 193.128906 76.210938 C 255.972656 76.210938 306.917969 127.15625 306.917969 190 Z M 306.917969 190"/>
  <path style="fill:rgb(100%,100%,100%)" d="M 244.179688 190 C 244.179688 219.023438 220.652344 242.550781 191.628906 242.550781 C 162.605469 242.550781 139.074219 219.023438 139.074219 190 C 139.074219 160.976562 162.605469 137.449219 191.628906 137.449219 C 220.652344 137.449219 244.179688 160.976562 244.179688 190 Z M 244.179688 190"/>
  <path style="fill:rgb(0%,0%,0%)" d="M 211.371094 202.820312 C 211.371094 205.285156 210.972656 207.558594 210.179688 209.640625 C 209.414062 211.695312 208.21875 213.476562 206.605469 214.980469 C 205.015625 216.488281 202.976562 217.667969 200.480469 218.515625 C 197.988281 219.363281 195.042969 219.789062 191.648438 219.789062 C 188.25 219.789062 185.308594 219.363281 182.8125 218.515625 C 180.347656 217.667969 178.292969 216.503906 176.652344 215.023438 C 175.035156 213.515625 173.828125 211.734375 173.035156 209.679688 C 172.269531 207.597656 171.882812 205.339844 171.882812 202.902344 C 171.882812 200.792969 172.199219 198.914062 172.828125 197.273438 C 173.488281 195.628906 174.351562 194.21875 175.417969 193.039062 C 176.515625 191.835938 177.746094 190.875 179.117188 190.164062 C 180.511719 189.425781 181.953125 188.929688 183.429688 188.683594 L 183.429688 188.519531 C 181.8125 188.136719 180.363281 187.519531 179.074219 186.671875 C 177.816406 185.824219 176.746094 184.808594 175.871094 183.632812 C 175.019531 182.425781 174.363281 181.097656 173.898438 179.644531 C 173.460938 178.195312 173.242188 176.660156 173.242188 175.042969 C 173.242188 173.015625 173.625 171.113281 174.390625 169.332031 C 175.1875 167.523438 176.351562 165.949219 177.882812 164.605469 C 179.417969 163.238281 181.320312 162.167969 183.59375 161.402344 C 185.867188 160.609375 188.5 160.210938 191.484375 160.210938 C 194.632812 160.210938 197.359375 160.609375 199.660156 161.402344 C 201.988281 162.195312 203.90625 163.277344 205.414062 164.648438 C 206.945312 165.992188 208.082031 167.566406 208.824219 169.375 C 209.5625 171.179688 209.933594 173.097656 209.933594 175.125 C 209.933594 176.714844 209.699219 178.234375 209.234375 179.6875 C 208.796875 181.136719 208.140625 182.46875 207.261719 183.671875 C 206.414062 184.851562 205.34375 185.863281 204.058594 186.714844 C 202.796875 187.535156 201.332031 188.109375 199.660156 188.4375 L 199.660156 188.601562 C 201.332031 188.875 202.878906 189.382812 204.304688 190.121094 C 205.726562 190.835938 206.960938 191.792969 208 193 C 209.042969 194.175781 209.863281 195.585938 210.46875 197.230469 C 211.070312 198.875 211.371094 200.738281 211.371094 202.820312 Z M 202.25 175.535156 C 202.25 174.085938 202.058594 172.757812 201.671875 171.550781 C 201.316406 170.34375 200.714844 169.320312 199.867188 168.46875 C 199.015625 167.59375 197.90625 166.921875 196.539062 166.457031 C 195.167969 165.960938 193.484375 165.714844 191.484375 165.714844 C 189.539062 165.714844 187.894531 165.960938 186.554688 166.457031 C 185.210938 166.921875 184.101562 167.59375 183.226562 168.46875 C 182.375 169.320312 181.757812 170.34375 181.375 171.550781 C 180.992188 172.757812 180.800781 174.085938 180.800781 175.535156 C 180.800781 176.6875 180.949219 177.863281 181.253906 179.070312 C 181.554688 180.277344 182.101562 181.371094 182.894531 182.355469 C 183.691406 183.34375 184.785156 184.152344 186.183594 184.78125 C 187.578125 185.410156 189.375 185.726562 191.566406 185.726562 C 193.894531 185.726562 195.757812 185.410156 197.152344 184.78125 C 198.578125 184.152344 199.660156 183.34375 200.398438 182.355469 C 201.167969 181.371094 201.660156 180.277344 201.878906 179.070312 C 202.125 177.863281 202.246094 176.6875 202.246094 175.535156 Z M 203.6875 202.121094 C 203.6875 200.722656 203.496094 199.382812 203.113281 198.09375 C 202.726562 196.78125 202.070312 195.628906 201.140625 194.644531 C 200.207031 193.628906 198.949219 192.820312 197.359375 192.21875 C 195.796875 191.589844 193.839844 191.273438 191.484375 191.273438 C 189.320312 191.273438 187.46875 191.589844 185.9375 192.21875 C 184.429688 192.820312 183.199219 193.628906 182.238281 194.644531 C 181.308594 195.65625 180.621094 196.835938 180.183594 198.175781 C 179.746094 199.492188 179.527344 200.859375 179.527344 202.285156 C 179.527344 204.066406 179.746094 205.695312 180.183594 207.175781 C 180.621094 208.625 181.320312 209.886719 182.28125 210.953125 C 183.238281 211.996094 184.5 212.804688 186.058594 213.378906 C 187.621094 213.953125 189.511719 214.242188 191.730469 214.242188 C 193.976562 214.242188 195.867188 213.953125 197.398438 213.378906 C 198.933594 212.804688 200.167969 211.996094 201.097656 210.953125 C 202.03125 209.886719 202.6875 208.613281 203.070312 207.132812 C 203.480469 205.628906 203.6875 203.957031 203.6875 202.121094 Z M 203.6875 202.121094"/>
 </g>
</svg>
